X: 3326
T: Polsk
B:[[Notböcker/Melodier til gamle danske Almuedanse for Violin solo]]
O:Danmark
Z:Søren Bak Vestergaard
M: 2/4
L: 1/4
K: G
g d|B G|A/B/ c/A/|B G|g d|B G|A/B/ c/A/|G z:|\
|:A A|B B|c/B/c/A/|B G|A A|B B|c/B/c/A/|G z:|
(:musicend:)
(:music:)
